X:249
T: Der verwundete Knabe (21b), S. 88
N: T0138
O: Luxemburg
S: Singendes Volk, Esch-Alzette 1937 posth.]
N: Blascheid, fff Hitting, 1901
R: Liebeslieder]
M: 3/4
L: 1/8
K: G
D2 | B2A2A2 | G2D2
ee | d3BBd | A2z2
dd | ddd3c | B3cd2 |
edcBcB | A3Bc2 |
ced2dc | B2z2

@@@ Tune index: 8303
